X: 41939
T: Walking In Liffey Street
R: jig
M: 6/8
K: Gmajor
Bc|:dge def|gdc BAG|CEG DGB|{d}BAG ABc|
dge def|gdc BAG|CEG DGB|1 {d}BAF GBc:|2 {d}BAF GFG||
A2 D ABc|BAG Bcd|ecA dBG|cBc A2 G|
FGF {G}FAc|BAG Bcd|ecA dBG|1 cAF GFG:|2 cAF GBc||

